Papirus-nordic/22x22/places/folder-red-java.svg

<svg xmlns="http://www.w3.org/2000/svg" width="22" height="22" version="1"><rect width="20" height="12" x="1" y="8.5" rx="1" ry="1" opacity=".2"/><path d="M1 16c0 .554.446 1 1 1h18c.554 0 1-.446 1-1V5c0-.554-.446-1-1-1H10V3c0-.554-.446-1-1-1H2c-.554 0-1 .446-1 1" fill="#ae4f58"/><rect width="20" height="12" x="1" y="7.5" rx="1" ry="1" opacity=".2"/><rect width="16" height="8" x="3" y="6" rx="1" ry="1" fill="#e4e4e4"/><rect width="20" height="12" x="1" y="8" rx="1" ry="1" fill="#bf616a"/><path d="M2 2c-.554 0-1 .446-1 1v.5c0-.554.446-1 1-1h7c.554 0 1 .446 1 1V3c0-.554-.446-1-1-1zm8 2v.5h10c.554 0 1 .446 1 1V5c0-.554-.446-1-1-1z" opacity=".1" fill="#fff"/><path d="M10.586 10s.413.233.122.844c-.441.921.406 1.132.406 1.132s-.269-.217.09-.977c.396-.842-.618-.999-.618-.999zm1.6.92s-.821.315-.292 1.176c.35.57-.038.853-.038.853s.992-.281.514-1.069c-.431-.712-.184-.96-.184-.96zm-2.365.023s-.718.548-.006 1.221c.47.448.162.836.162.836s.891-.566.247-1.186c-.582-.558-.403-.87-.403-.87zM9.977 13H8l1 4h4l.138-.549c.116.029.237.049.362.049a1.496 1.496 0 0 0 .362-2.951L14 13H9.976zm3.765 1.031l.017.003c.267.071.367.562.224 1.096-.14.52-.46.891-.725.839z" fill="#974a4d"/></svg>

<svg xmlns="http://www.w3.org/2000/svg" width="22" height="22" version="1">
 <rect style="opacity:0.2" width="20" height="12" x="1" y="8.5" rx="1" ry="1"/>
 <path style="fill:#ae4f58" d="M 1,16 C 1,16.554 1.446,17 2,17 H 20 C 20.554,17 21,16.554 21,16 V 5 C 21,4.446 20.554,4 20,4 H 10 V 3 C 10,2.446 9.554,2 9,2 H 2 C 1.446,2 1,2.446 1,3"/>
 <rect style="opacity:0.2" width="20" height="12" x="1" y="7.5" rx="1" ry="1"/>
 <rect style="fill:#e4e4e4" width="16" height="8" x="3" y="6" rx="1" ry="1"/>
 <rect style="fill:#bf616a" width="20" height="12" x="1" y="8" rx="1" ry="1"/>
 <path style="opacity:0.1;fill:#ffffff" d="M 2,2 C 1.446,2 1,2.446 1,3 V 3.5 C 1,2.946 1.446,2.5 2,2.5 H 9 C 9.554,2.5 10,2.946 10,3.5 V 3 C 10,2.446 9.554,2 9,2 Z M 10,4 V 4.5 H 20 C 20.554,4.5 21,4.946 21,5.5 V 5 C 21,4.446 20.554,4 20,4 Z"/>
 <path style="fill:#974a4d" d="M 10.586,10 C 10.586,10 10.999,10.233 10.708,10.844 10.267,11.765 11.114,11.976 11.114,11.976 11.114,11.976 10.845,11.759 11.204,10.999 11.6,10.157 10.586,10 10.586,10 Z M 12.186,10.92 C 12.186,10.92 11.365,11.235 11.894,12.096 12.244,12.666 11.856,12.949 11.856,12.949 11.856,12.949 12.848,12.668 12.37,11.88 11.939,11.168 12.186,10.92 12.186,10.92 Z M 9.821,10.943 C 9.821,10.943 9.103,11.491 9.815,12.164 10.285,12.612 9.977,13 9.977,13 9.977,13 10.868,12.434 10.224,11.814 9.642,11.256 9.821,10.944 9.821,10.944 Z M 9.977,13 H 8 L 9,17 H 13 L 13.138,16.451 C 13.254,16.48 13.375,16.5 13.5,16.5 14.328,16.5 15,15.828 15,15 15,14.297 14.515,13.711 13.862,13.549 L 14,13 H 9.976 Z M 13.742,14.031 C 13.748,14.032 13.753,14.033 13.759,14.034 14.026,14.105 14.126,14.596 13.983,15.13 13.843,15.65 13.523,16.021 13.258,15.969 Z"/>
</svg>
